.icons/Gruvbox-Plus-Light/apps/16/civilization6.svg

<svg width="16" height="16" version="1.1" xmlns="http://www.w3.org/2000/svg">
  <defs>
    <style id="current-color-scheme" type="text/css">.ColorScheme-Text { color:#282828; } .ColorScheme-Highlight { color:#458588; }</style>
  </defs>
  <path class="ColorScheme-Text" d="m0 2.014 3.426 11.99h5.138l3.426-11.99h-3.426l-2.569 9.42-2.569-9.42h-3.426zm13.06-0.017h2.935v11.99h-2.935v-11.99z" fill="currentColor"/>
</svg>

<svg width="16" height="16" version="1.1" xmlns="http://www.w3.org/2000/svg">
  <defs>
    <style type="text/css" id="current-color-scheme">.ColorScheme-Text { color:#282828; } .ColorScheme-Highlight { color:#458588; }</style>
  </defs>
  <path class="ColorScheme-Text" fill="currentColor" d="M 0 2.014 L 3.426 14.003 L 8.564 14.003 L 11.99 2.014 L 8.564 2.014 L 5.995 11.434 L 3.426 2.014 L 0 2.014 Z M 13.065 1.997 L 16 1.997 L 16 13.986 L 13.065 13.986 L 13.065 1.997 Z"/>
</svg>
